icons/1_Primary/Windscribe.svg

<svg width="1024" height="1024" viewBox="0 0 1024 1024" fill="none" xmlns="http://www.w3.org/2000/svg">
<g clip-path="url(#clip0_2_3939)">
<path d="M512 1024C794.77 1024 1024 794.77 1024 512C1024 229.23 794.77 0 512 0C229.23 0 0 229.23 0 512C0 794.77 229.23 1024 512 1024Z" fill="#54688C"/>
<path d="M724.09 376.15C716.64 358.15 709.34 340.1 701.8 322.15C638.56 296 575.23 270.09 512 243.94C448.77 270.09 385.44 296 322.21 322.15C314.67 340.1 307.37 358.15 299.92 376.15C281.307 421.43 262.667 466.714 244 512C270.073 575.334 296.15 638.667 322.23 702C385.497 728 448.753 754.027 512 780.08C575.28 754.08 638.537 728.054 701.77 702C727.883 638.667 753.96 575.334 780 512C761.373 466.714 742.737 421.43 724.09 376.15ZM512 742.84C457.42 720.567 402.853 698.26 348.3 675.92C325.913 621.254 303.58 566.607 281.3 511.98C303.64 457.38 325.973 402.78 348.3 348.18C402.7 325.98 457.087 303.747 511.46 281.48C511.639 281.367 511.848 281.306 512.06 281.306C512.272 281.306 512.481 281.367 512.66 281.48C567.053 303.7 621.44 325.934 675.82 348.18C698.173 402.774 720.507 457.374 742.82 511.98C720.493 566.647 698.16 621.294 675.82 675.92C621.14 698.2 512 742.84 512 742.84ZM512.12 556.53C512.086 556.549 512.048 556.558 512.01 556.558C511.972 556.558 511.934 556.549 511.9 556.53C494.467 574.077 477.037 591.624 459.61 609.17C449.31 619.34 434.61 623.78 420.36 623.99H377.75V400.43H430.31V563.99C447.51 546.657 464.73 529.35 481.97 512.07C491.917 502.07 501.887 492.07 511.88 482.07L511.98 481.97L512.08 482.07C522.08 492.07 532.05 502.07 541.99 512.07C559.25 529.357 576.477 546.667 593.67 564C593.73 509.48 593.73 454.96 593.67 400.44H646.23V624H603.62C589.4 623.79 574.67 619.35 564.37 609.18C546.91 591.667 529.48 574.12 512.08 556.54M712.83 511.69L712.88 511.82H709.5C705.5 511.91 701.44 511.82 697.41 511.82H654.13V392.6H590.44L588.15 394.9L576 407.06C570.21 412.85 564.22 418.83 558.34 424.74L556 427V503.95H545C535.79 494.67 526.58 485.44 517.65 476.48L512.1 471L511.98 470.88L511.88 470.98L506.34 476.54C497.41 485.54 488.2 494.73 478.99 504.01H468V427L465.71 424.7C459.83 418.8 453.84 412.81 448.05 407.02L435.9 394.87L433.61 392.57H369.9V511.79H326.62C322.62 511.79 318.55 511.88 314.53 511.79H311.12L311.17 511.66H311.12C331 464.654 350.82 417.614 370.58 370.54C417.367 350.794 464.173 331.08 511 311.4C511.298 311.208 511.645 311.105 512 311.105C512.355 311.105 512.702 311.208 513 311.4C559.807 331.134 606.627 350.854 653.46 370.56C673.273 417.607 693.093 464.647 712.92 511.68L712.83 511.69Z" fill="white"/>
</g>
<defs>
<clipPath id="clip0_2_3939">
<rect width="1024" height="1024" fill="white"/>
</clipPath>
</defs>
</svg>

<svg xmlns="http://www.w3.org/2000/svg" viewBox="0 0 1024 1024">
   <circle cx="512" cy="512" r="512" style="fill:#020d1c"/>
   <path data-name="Windscribe logo (monochrome version by krisu)" d="M724.09 376.15c-7.45-18-14.75-36.05-22.29-54C638.56 296 575.23 270.09 512 243.94c-63.23 26.15-126.56 52.06-189.79 78.21-7.54 17.95-14.84 36-22.29 54Q272 444.07 244 512q39.11 95 78.23 190 94.9 39 189.77 78.08 94.92-39 189.77-78.08 39.17-95 78.23-190-27.94-67.93-55.91-135.85zM512 742.84q-81.87-33.41-163.7-66.92-33.58-82-67-163.94 33.51-81.9 67-163.8 81.6-33.3 163.16-66.7a1.12 1.12 0 0 1 1.2 0q81.59 33.33 163.16 66.7 33.53 81.89 67 163.8-33.49 82-67 163.94C621.14 698.2 512 742.84 512 742.84m.12-186.31a.23.23 0 0 1-.22 0q-26.15 26.32-52.29 52.64c-10.3 10.17-25 14.61-39.25 14.82h-42.61V400.43h52.56v163.56q25.8-26 51.66-51.92 14.92-15 29.91-30l.1-.1.1.1q15 15 29.91 30Q567.88 538 593.67 564q.09-81.78 0-163.56h52.56V624h-42.61c-14.22-.21-28.95-4.65-39.25-14.82q-26.19-26.27-52.29-52.64m200.75-44.85.05.13h-3.38c-4 .09-8.06 0-12.09 0h-43.28V392.6h-63.69l-2.29 2.3L576 407.06c-5.79 5.79-11.78 11.77-17.66 17.68L556 427v76.95h-11c-9.21-9.28-18.42-18.51-27.35-27.47L512.1 471l-.12-.12-.1.1-5.54 5.56c-8.93 9-18.14 18.19-27.35 27.47H468V427l-2.29-2.3c-5.88-5.9-11.87-11.89-17.66-17.68l-12.15-12.15-2.29-2.3H369.9v119.22h-43.28c-4 0-8.07.09-12.09 0h-3.41l.05-.13h-.05q29.82-70.51 59.46-141.12Q440.76 340.92 511 311.4a1.84 1.84 0 0 1 2 0q70.21 29.6 140.46 59.16 29.72 70.57 59.46 141.12z" style="fill:#fff"/>
</svg>
